X:1
T:Slighted Jenny
M:2/4
L:1/8
R:Reel
B:George P. Knauff – Virginia Reels
N:Published in Baltimore by Geo. Willig n.d. (1839?)
Z:AK/Fiddler’s Companion
K:G
D(F/A/) dd|{f}e/d/e/f/ g/a/b|D(F/A/) dd|{e}d/B/A/F/ E/F/G|
D(F/A/) dd|{f}e/d/e/g/ a2|b/g/a/f/ g/e/d/c/|B/A/G/F/ Gz:|
|:G/d/B/d/ G/d/B/d/|{f}e/d/e/f/ gg|A/e/^c/e/ A/e/c/e/|{g}f/e/f/g/ a2|
z/(g/b/d'/) z/(d/f/a/)|z/(c/e/g/) z/(G/B/d/)|AF/A/ DA/c/|B/A/G/F/ Gz:||

